svg/business/currency_pound_line.svg

<?xml version="1.0" encoding="UTF-8"?>
<svg width="24px" height="24px" viewBox="0 0 24 24" version="1.1" xmlns="http://www.w3.org/2000/svg" xmlns:xlink="http://www.w3.org/1999/xlink">
    <title>currency_pound_line</title>
    <g id="页面-1" stroke="none" stroke-width="1" fill="none" fill-rule="evenodd">
        <g id="Business" transform="translate(-336.000000, -288.000000)">
            <g id="currency_pound_line" transform="translate(336.000000, 288.000000)">
                <path d="M24,0 L24,24 L0,24 L0,0 L24,0 Z M12.5934901,23.257841 L12.5819402,23.2595131 L12.5108777,23.2950439 L12.4918791,23.2987469 L12.4918791,23.2987469 L12.4767152,23.2950439 L12.4056548,23.2595131 C12.3958229,23.2563662 12.3870493,23.2590235 12.3821421,23.2649074 L12.3780323,23.275831 L12.360941,23.7031097 L12.3658947,23.7234994 L12.3769048,23.7357139 L12.4804777,23.8096931 L12.4953491,23.8136134 L12.4953491,23.8136134 L12.5071152,23.8096931 L12.6106902,23.7357139 L12.6232938,23.7196733 L12.6232938,23.7196733 L12.6266527,23.7031097 L12.609561,23.275831 C12.6075724,23.2657013 12.6010112,23.2592993 12.5934901,23.257841 L12.5934901,23.257841 Z M12.8583906,23.1452862 L12.8445485,23.1473072 L12.6598443,23.2396597 L12.6498822,23.2499052 L12.6498822,23.2499052 L12.6471943,23.2611114 L12.6650943,23.6906389 L12.6699349,23.7034178 L12.6699349,23.7034178 L12.678386,23.7104931 L12.8793402,23.8032389 C12.8914285,23.8068999 12.9022333,23.8029875 12.9078286,23.7952264 L12.9118235,23.7811639 L12.8776777,23.1665331 C12.8752882,23.1545897 12.8674102,23.1470016 12.8583906,23.1452862 L12.8583906,23.1452862 Z M12.1430473,23.1473072 C12.1332178,23.1423925 12.1221763,23.1452606 12.1156365,23.1525954 L12.1099173,23.1665331 L12.0757714,23.7811639 C12.0751323,23.7926639 12.0828099,23.8018602 12.0926481,23.8045676 L12.108256,23.8032389 L12.3092106,23.7104931 L12.3186497,23.7024347 L12.3186497,23.7024347 L12.3225043,23.6906389 L12.340401,23.2611114 L12.337245,23.2485176 L12.337245,23.2485176 L12.3277531,23.2396597 L12.1430473,23.1473072 Z" id="MingCute" fill-rule="nonzero"></path>
                <path d="M12,4 C7.58172,4 4,7.58172 4,12 C4,16.4183 7.58172,20 12,20 C16.4183,20 20,16.4183 20,12 C20,7.58172 16.4183,4 12,4 Z M2,12 C2,6.47715 6.47715,2 12,2 C17.5228,2 22,6.47715 22,12 C22,17.5228 17.5228,22 12,22 C6.47715,22 2,17.5228 2,12 Z M7,12 C7,11.4477 7.44772,11 8,11 L8.99825,11 L8.99987,9.60434 C8.99987,7.61312 10.614,6 12.6055,6 C13.74,6 14.8041,6.53372 15.4828,7.43274 L15.8319,7.9453 C16.1383,8.40483 16.0141,9.0257 15.5546,9.33205 C15.1279,9.61652 14.562,9.52977 14.2381,9.148 C13.8314,8.55456 13.4062,8 12.6055,8 C11.701,8 11.039,8.73296 10.9999,9.60434 L10.9999,11 L13,11 C13.5523,11 14,11.4477 14,12 C14,12.5523 13.5523,13 13,13 L10.9999,13 L10.9999,15 C10.9999,15.2635 10.9772,15.5273 10.9219,15.785 C11.3991,15.8253 11.8588,15.9129 12.3161,16.0513 C13.0912,16.3097 13.9043,16.2417 14.6836,16.0513 C15.2076,15.8767 15.7739,16.1598 15.9486,16.6838 C16.1232,17.2077 15.84,17.774 15.3161,17.9487 C14.1201,18.2655 12.8772,18.3465 11.6836,17.9487 C10.9085,17.6903 10.0954,17.7583 9.3161,17.9487 C8.13789,18.3414 7.45708,16.7248 8.55266,16.1056 C8.75958,15.9886 8.96472,15.5742 8.99339,15.1744 L8.99592,13 L8,13 C7.44772,13 7,12.5523 7,12 Z" id="形状" fill="#09244B"></path>
            </g>
        </g>
    </g>
</svg>

<svg xmlns="http://www.w3.org/2000/svg" width="24" height="24"><g fill="none" fill-rule="evenodd"><path d="M24 0v24H0V0zM12.593 23.258l-.011.002-.071.035-.02.004-.014-.004-.071-.035c-.01-.004-.019-.001-.024.005l-.004.01-.017.428.005.02.01.013.104.074.015.004.012-.004.104-.074.012-.016.004-.017-.017-.427c-.002-.01-.009-.017-.017-.018m.265-.113-.013.002-.185.093-.01.01-.003.011.018.43.005.012.008.007.201.093c.012.004.023 0 .029-.008l.004-.014-.034-.614c-.003-.012-.01-.02-.02-.022m-.715.002a.023.023 0 0 0-.027.006l-.006.014-.034.614c0 .012.007.02.017.024l.015-.002.201-.093.01-.008.004-.011.017-.43-.003-.012-.01-.01z"/><path fill="#09244B" d="M12 4a8 8 0 1 0 0 16 8 8 0 0 0 0-16M2 12C2 6.477 6.477 2 12 2s10 4.477 10 10-4.477 10-10 10S2 17.523 2 12m5 0a1 1 0 0 1 1-1h.998L9 9.604a3.604 3.604 0 0 1 6.483-2.171l.349.512a1 1 0 0 1-1.594 1.203C13.831 8.555 13.406 8 12.605 8c-.904 0-1.566.733-1.605 1.604V11h2a1 1 0 1 1 0 2h-2v2c0 .264-.023.527-.078.785.477.04.937.128 1.394.266.775.259 1.588.19 2.368 0a1 1 0 0 1 .632 1.898c-1.196.316-2.439.397-3.632 0-.775-.259-1.589-.19-2.368 0-1.178.392-1.859-1.224-.763-1.843.207-.117.412-.532.44-.932L8.996 13H8a1 1 0 0 1-1-1"/></g></svg>
